X:952
T:Reel 952
M:4/4
K:Gmaj
L:1/8
dc|B>G (3GGG BGGA|B>G (3GGG G2gf|e>A (3AAA gABc|Aaag fedc|B>G (3GFG DGGA|BGdB g2fg|efgf gddB|AGAB G2|Bc|d2gf g2fg|agab agg2|dggf g2ga|bgaf gfef|dggf g2fg|agfg e2dB|c2ec B2dB|AGAB G2|
